polaris-icons/icons/newicons/SaveMinor.svg

<svg width="20" height="20" viewBox="0 0 20 20" fill="none" xmlns="http://www.w3.org/2000/svg">
<path d="M17 6.25C17 6.66421 16.6642 7 16.25 7C15.8358 7 15.5 6.66421 15.5 6.25V5.75C15.5 5.05964 14.9404 4.5 14.25 4.5L5.75 4.5C5.05964 4.5 4.5 5.05964 4.5 5.75V6.25C4.5 6.66421 4.16421 7 3.75 7C3.33579 7 3 6.66421 3 6.25V5.75C3 4.23122 4.23122 3 5.75 3H14.25C15.7688 3 17 4.23122 17 5.75V6.25Z" fill="black"/>
<path d="M10.75 6.75C10.75 6.33579 10.4142 6 10 6C9.58579 6 9.25 6.33579 9.25 6.75V14.537L7.25871 12.6989C6.95435 12.4179 6.47985 12.4369 6.1989 12.7413C5.91795 13.0457 5.93693 13.5202 6.24129 13.8011L9.49129 16.8011C9.77859 17.0663 10.2214 17.0663 10.5087 16.8011L13.7587 13.8011C14.0631 13.5201 14.0821 13.0457 13.8011 12.7413C13.5202 12.4369 13.0457 12.4179 12.7413 12.6989L10.75 14.537L10.75 6.75Z" fill="black"/>
</svg>

<svg viewBox="0 0 20 20" fill="none" xmlns="http://www.w3.org/2000/svg"><path d="M17 6.25a.75.75 0 0 1-1.5 0v-.5c0-.69-.56-1.25-1.25-1.25h-8.5c-.69 0-1.25.56-1.25 1.25v.5a.75.75 0 0 1-1.5 0v-.5a2.75 2.75 0 0 1 2.75-2.75h8.5a2.75 2.75 0 0 1 2.75 2.75v.5Z" fill="#5C5F62"/><path d="M10.75 6.75a.75.75 0 0 0-1.5 0v7.787l-1.991-1.838a.75.75 0 1 0-1.018 1.102l3.25 3a.75.75 0 0 0 1.018 0l3.25-3a.75.75 0 1 0-1.018-1.102l-1.991 1.838v-7.787Z" fill="#5C5F62"/></svg>
